!!!OTL: Gruenes Gras, gruenes Gras unter meinen Fuessen, hab' verloren meinen Schatz, werd' ihn suchen mussen.
!!!ARE: Europa, Mitteleuropa, Deutschland, Harz, St. Andreasberg
!!!SCT: D0235A
!!!YEM: Copyright 1995, estate of Helmut Schaffrath.
**kern
*ICvox
*Ivox
!! Mixed meters:  2/4; 3/4
*M3/4
*k[f#c#]
*D:
=1
{8a
8g
4f#
=2
8a
8g
4f#
=3
8a
8a
8b
8a
=4
4a
4g}
=5
{8g
8g
8e
8f#
=6
8g
8g
4e
=7
8g
8g
8.a
16g
=8
4g
4f#}
=9
{8a
8g
4f#
=10
8a
8g
4f#
=11
8a
8a
8b
8a
=12
4a
4g}
=13
{8g
8g
8e
8f#
=14
8g
8g
4e
=15
8g
8g
8.a
16g
=16
4g
4f#}
=17
{8f#
8g
4a
=18
8f#
8g
4.a
8a
=19
8dd
8b
4.a}
{8a
=20
8.b
16a
4.g
8e
=21
8.b
16a
4.f#}
{8a
=22
4.a
8g
8e
8g
=23
4.b
8a
8f#}
{8d
=24
*M2/4
8d
8e
8f#
8g
=25
4a
4a
=26
8.b
16b
8b
8b
=27
4.a}
{8a
=28
8.g
16g
8g
8g
=29
4f#
4f#
=30
8.a
16a
8a
8a
=31
4d
4r}
==
!!!AGN: Kinder - Lied, Tanzlied
!! in der dritten Zeile rhythmisch korrigiert; Inzipit = Variante; Keine     Variante zum
!!folgenden und zum vorigen Lied !! (DVA - Signatur 235 d)
!!!ONB: ESAC (Essen Associative Code) Database: DVA
!!!AMT: irregular
!!!AIN: vox
!!!EED: Helmut Schaffrath
!!!EEV: 1.0
*-
!!!title: Gruenes Gras, gruenes Gras unter meinen Fuessen [@{SCT}]
